X:242
T:Fan in the Doorway
C:Gene Hubert
M:9/8
L:1/8
Q:3/8=112
K:G
P:A
|: "Em"E2G "/"B2G "/"EBe | "G"d2B "/"BAG "D"AFD | "Em"E2G "/"B2G "/"EBe | "G"dcB "D"AGF "Em"E3 :|
P:B
|: "Em"B2E "/"EBe "G"d2c | "Em"B2e "/"f2g "D"fed | "Em"B2E "/"EBe "G"d2c | "Em"BcB "D"AGF "Em"E3 :|
P:C
|: "Em"EBe "D"d2e "C"gfe | "G"dBG "/"GAB "D"AFD | "Em"EBe "D"d2e "C"gfe | "G"dcB "D"AGF "Em"E3 :|
N:Replace by blank line and X field
T:Robins on my doorstep
C:Gene Hubert
M:9/8
L:1/8
Q:3/8=112
K:G
P:A
|: "G"dBG "/"GAB "C"E2E | "D"DFA "A7"ed^c "D"d3 | "G"dBG "/"GAB "C"E2e | "G"dBG "D"AEF "G"G3 :|
P:B
|: "G"dBd "/"def "C"g2e | "G"d2B "/"BAG "D"A2e | "G"dBd "/"def "C"g2e | "G"dBG "D"AEF "G"G3 :|
P:C
|: "G"dBG "/"dBG "D"A2e | "G"d2B "/"BAG "D"A2e | "G"dBG "/"dBG "C"g2e | "G"dBG "D"AEF "G"G3 :|

